X:26
T:Prire de Franois
C:R. Lebel
M:C
L:1/4
K:Bb
"Bb"D"F"F"Eb"E"Bb"D|"Eb"CB,"Bb"D"F"C|"Bb"D"F"F"Gm"B"F"A|"C"GG"F"F2|"Eb"GA"Bb"BF|\
"Eb"E3/F/"Bb"DD|"Cm"C"Gm"D"Cm"E"Bb"F|"Eb"GB"F"c2-|[M:2/4][L:1/4]cz|
[M:C][L:1/4]"Bb"B3/c/dB|"F"c2F2|"Gm"B3/A/BF|"Eb"EG"F"F2|"Bb"B3/c/dB|\
"F"c2F2|"Gm"B3/A/BF|"Eb"EG"F"FA|"Bb"B3z||
